Newaita-dark/apps/48/gdebi.svg

<svg height="48pt" viewBox="0 0 48 48" width="48pt" xmlns="http://www.w3.org/2000/svg" xmlns:xlink="http://www.w3.org/1999/xlink"><linearGradient id="a" gradientUnits="userSpaceOnUse" x1="23.81478" x2="23.81478" y1="42.0509045" y2="44.03547050005"><stop offset="0" stop-opacity=".27451"/><stop offset="1" stop-opacity="0"/></linearGradient><linearGradient id="b"><stop offset="0" stop-opacity=".313726"/><stop offset=".222222" stop-opacity=".27451"/><stop offset="1" stop-opacity="0"/></linearGradient><radialGradient id="c" cx="450.908936" cy="189.579361" gradientTransform="matrix(.00000026 -.117199 -.210958 -.00000015 79.684395 95.392999)" gradientUnits="userSpaceOnUse" r="21.166656" xlink:href="#b"/><radialGradient id="d" cx="450.908936" cy="189.579361" gradientTransform="matrix(-.00000026 .117199 .210958 .00000015 -31.80678 -11.291218)" gradientUnits="userSpaceOnUse" r="21.166656" xlink:href="#b"/><radialGradient id="e" cx="450.908936" cy="189.579361" gradientTransform="matrix(-.00000026 -.117199 .210958 -.00000015 -31.80678 95.392999)" gradientUnits="userSpaceOnUse" r="21.166656" xlink:href="#b"/><radialGradient id="f" cx="450.908936" cy="189.579361" gradientTransform="matrix(.00000026 .117199 -.210958 .00000015 79.684393 -11.291219)" gradientUnits="userSpaceOnUse" r="21.166656" xlink:href="#b"/><linearGradient id="g" gradientUnits="userSpaceOnUse" x1="23.814786" x2="23.814786" y1="4.3441580001" y2="42.0509015"><stop offset="0" stop-color="#f48fb1"/><stop offset="1" stop-color="#f06292"/></linearGradient><linearGradient id="h" gradientUnits="userSpaceOnUse" x1="23.814786" x2="23.814786" y1="33.12035615639" y2="4.34415449995"><stop offset="0" stop-color="#bdbdbd"/><stop offset="1" stop-color="#e0e0e0"/></linearGradient><path d="m7.691406 42.050781h32.496094v1.984375h-32.496094zm0 0" fill="url(#a)"/><path d="m40.1875 42.050781h3.96875v-1.984375h-3.96875zm0 0" fill="url(#c)"/><path d="m7.691406 42.050781h-3.96875v1.984375h3.96875zm0 0" fill="url(#d)"/><path d="m7.691406 42.050781h-3.96875v-1.984375h3.96875zm0 0" fill="url(#e)"/><path d="m40.1875 42.050781h3.96875v1.984375h-3.96875zm0 0" fill="url(#f)"/><path d="m5.457031 4.34375h36.714844c.820313 0 1.488281.667969 1.488281 1.488281v34.730469c0 .820312-.667968 1.488281-1.488281 1.488281h-36.714844c-.820312 0-1.488281-.667969-1.488281-1.488281v-34.730469c0-.820312.667969-1.488281 1.488281-1.488281zm0 0" fill="url(#g)"/><path d="m3.96875 40.191406v.371094c0 .824219.664062 1.488281 1.488281 1.488281h36.714844c.824219 0 1.488281-.664062 1.488281-1.488281v-.371094c0 .824219-.664062 1.488282-1.488281 1.488282h-36.714844c-.824219 0-1.488281-.664063-1.488281-1.488282zm0 0" fill-opacity=".235294"/><path d="m3.96875 36.097656h39.691406v.246094h-39.691406zm0 0" fill-opacity=".196078"/><path d="m3.96875 36.34375h39.691406v.25h-39.691406zm0 0" fill="#e6e6e6" fill-opacity=".588235"/><path d="m3.96875 36.222656h39.691406v.246094h-39.691406zm0 0" fill="#212121" fill-opacity=".992157"/><path d="m5.953125 4.34375c-1.097656 0-1.984375.886719-1.984375 1.984375v.25c0-1.101563.886719-1.984375 1.984375-1.984375h35.722656c1.097657 0 1.984375.882812 1.984375 1.984375v-.25c0-1.097656-.886718-1.984375-1.984375-1.984375zm0 0" fill="#e6e6e6" fill-opacity=".588235"/><path d="m5.457031 4.34375c-.824219 0-1.488281.664062-1.488281 1.488281v3.96875c0 .175781.03125.34375.085938.496094h13.804687c.550781 0 .992187.445313.992187.992187v11.910157h-2.976562c-.882812 0-1.324219 1.066406-.699219 1.691406l7.9375 7.9375c.386719.386719 1.015625.386719 1.402344 0l7.9375-7.9375c.625-.625.183594-1.691406-.699219-1.691406h-2.976562v-11.910157c0-.546874.441406-.992187.992187-.992187h13.804688c.054687-.152344.085937-.320313.085937-.496094v-3.96875c0-.824219-.664062-1.488281-1.488281-1.488281zm0 0" fill="url(#h)"/><path d="m5.457031 4.34375c-.824219 0-1.488281.664062-1.488281 1.488281v.496094c0-.824219.664062-1.488281 1.488281-1.488281h36.714844c.824219 0 1.488281.664062 1.488281 1.488281v-.496094c0-.824219-.664062-1.488281-1.488281-1.488281zm10.417969 18.855469c-.691406 0-1.113281.660156-.960938 1.246093.105469-.410156.464844-.75.960938-.75h2.976562v-.496093zm12.902344 0v.496093h2.976562c.496094 0 .855469.339844.960938.75.152344-.585937-.269532-1.246093-.960938-1.246093zm0 0" fill="#fff" fill-opacity=".392157"/><path d="m5.457031 4.203125c-.898437 0-1.628906.730469-1.628906 1.628906v34.730469c0 .898438.730469 1.628906 1.628906 1.628906h36.714844c.898437 0 1.628906-.730468 1.628906-1.628906v-34.730469c0-.898437-.730469-1.628906-1.628906-1.628906zm0 .28125h36.714844c.75 0 1.347656.597656 1.347656 1.347656v34.730469c0 .75-.597656 1.347656-1.347656 1.347656h-36.714844c-.75 0-1.347656-.597656-1.347656-1.347656v-34.730469c0-.75.597656-1.347656 1.347656-1.347656zm0 0" fill="#212121"/><path d="m3.96875 9.304688v.496093c0 .175781.03125.34375.085938.496094h13.804687c.550781 0 .992187.445313.992187.992187v-.496093c0-.550781-.441406-.992188-.992187-.992188h-13.804687c-.054688-.15625-.085938-.320312-.085938-.496093zm39.691406 0c0 .175781-.03125.339843-.085937.496093h-13.804688c-.550781 0-.992187.441407-.992187.992188v.496093c0-.546874.441406-.992187.992187-.992187h13.804688c.054687-.152344.085937-.320313.085937-.496094zm-28.746094 14.640624c-.082031.316407-.011718.671876.261719.945313l7.9375 7.9375c.386719.386719 1.015625.386719 1.402344 0l7.9375-7.9375c.273437-.273437.34375-.628906.261719-.945313-.042969.160157-.128906.316407-.261719.449219l-7.9375 7.9375c-.386719.386719-1.015625.386719-1.402344 0l-7.9375-7.9375c-.132812-.132812-.21875-.289062-.261719-.449219zm0 0" fill-opacity=".235294"/><path d="m5.457031 4.203125c-.898437 0-1.628906.730469-1.628906 1.628906v3.96875c0 .191407.03125.375.09375.542969l.03125.09375h13.90625c.476563 0 .851563.378906.851563.851562v11.769532h-2.835938c-.496094 0-.882812.304687-1.042969.699218-.164062.390626-.109375.878907.242188 1.234376l7.941406 7.9375c.441406.441406 1.160156.441406 1.601563 0l7.9375-7.9375c.351562-.355469.40625-.84375.246093-1.234376-.164062-.394531-.550781-.699218-1.046875-.699218h-2.835937v-11.769532c0-.472656.375-.851562.851562-.851562h13.90625l.03125-.09375c.0625-.167969.09375-.351562.09375-.542969v-3.96875c0-.898437-.730469-1.628906-1.628906-1.628906zm0 .28125h36.714844c.75 0 1.347656.597656 1.347656 1.347656v3.96875c0 .125-.019531.242188-.050781.355469h-13.699219c-.625 0-1.132812.507812-1.132812 1.132812v12.050782h3.117187c.382813 0 .660156.226562.785156.523437s.085938.65625-.183593.929688l-7.9375 7.9375c-.335938.332031-.871094.332031-1.203125 0l-7.941406-7.9375c-.269532-.273438-.304688-.632813-.183594-.929688.125-.296875.402344-.523437.785156-.523437h3.117188v-12.050782c0-.625-.507813-1.132812-1.132813-1.132812h-13.699219c-.03125-.113281-.050781-.230469-.050781-.355469v-3.96875c0-.75.597656-1.347656 1.347656-1.347656zm0 0" fill="#212121"/></svg>

<?xml version="1.0" encoding="UTF-8"?>
<svg xmlns="http://www.w3.org/2000/svg" xmlns:xlink="http://www.w3.org/1999/xlink" width="48pt" height="48pt" viewBox="0 0 48 48" version="1.1">
<defs>
<linearGradient id="linear0" gradientUnits="userSpaceOnUse" x1="254" y1="233.5" x2="254" y2="254.666672" gradientTransform="matrix(0.093759,0,0,0.093759,-0.00000572259,20.158178)">
<stop offset="0" style="stop-color:rgb(0%,0%,0%);stop-opacity:0.27451;"/>
<stop offset="1" style="stop-color:rgb(0%,0%,0%);stop-opacity:0;"/>
</linearGradient>
<radialGradient id="radial0" gradientUnits="userSpaceOnUse" cx="450.908936" cy="189.579361" fx="450.908936" fy="189.579361" r="21.166656" gradientTransform="matrix(0.000000261256,-0.117199,-0.210958,-0.000000152308,79.684395,95.392999)">
<stop offset="0" style="stop-color:rgb(0%,0%,0%);stop-opacity:0.313726;"/>
<stop offset="0.222222" style="stop-color:rgb(0%,0%,0%);stop-opacity:0.27451;"/>
<stop offset="1" style="stop-color:rgb(0%,0%,0%);stop-opacity:0;"/>
</radialGradient>
<radialGradient id="radial1" gradientUnits="userSpaceOnUse" cx="450.908936" cy="189.579361" fx="450.908936" fy="189.579361" r="21.166656" gradientTransform="matrix(-0.000000261256,0.117199,0.210958,0.000000152308,-31.80678,-11.291218)">
<stop offset="0" style="stop-color:rgb(0%,0%,0%);stop-opacity:0.313726;"/>
<stop offset="0.222222" style="stop-color:rgb(0%,0%,0%);stop-opacity:0.27451;"/>
<stop offset="1" style="stop-color:rgb(0%,0%,0%);stop-opacity:0;"/>
</radialGradient>
<radialGradient id="radial2" gradientUnits="userSpaceOnUse" cx="450.908936" cy="189.579361" fx="450.908936" fy="189.579361" r="21.166656" gradientTransform="matrix(-0.000000261256,-0.117199,0.210958,-0.000000152308,-31.80678,95.392999)">
<stop offset="0" style="stop-color:rgb(0%,0%,0%);stop-opacity:0.313726;"/>
<stop offset="0.222222" style="stop-color:rgb(0%,0%,0%);stop-opacity:0.27451;"/>
<stop offset="1" style="stop-color:rgb(0%,0%,0%);stop-opacity:0;"/>
</radialGradient>
<radialGradient id="radial3" gradientUnits="userSpaceOnUse" cx="450.908936" cy="189.579361" fx="450.908936" fy="189.579361" r="21.166656" gradientTransform="matrix(0.000000261256,0.117199,-0.210958,0.000000152308,79.684393,-11.291219)">
<stop offset="0" style="stop-color:rgb(0%,0%,0%);stop-opacity:0.313726;"/>
<stop offset="0.222222" style="stop-color:rgb(0%,0%,0%);stop-opacity:0.27451;"/>
<stop offset="1" style="stop-color:rgb(0%,0%,0%);stop-opacity:0;"/>
</radialGradient>
<linearGradient id="linear1" gradientUnits="userSpaceOnUse" x1="254" y1="-168.666656" x2="254" y2="233.5" gradientTransform="matrix(0.093759,0,0,0.093759,0,20.158175)">
<stop offset="0" style="stop-color:rgb(95.686275%,56.078434%,69.411767%);stop-opacity:1;"/>
<stop offset="1" style="stop-color:rgb(94.117647%,38.431373%,57.254905%);stop-opacity:1;"/>
</linearGradient>
<linearGradient id="linear2" gradientUnits="userSpaceOnUse" x1="254" y1="138.250015" x2="254" y2="-168.666672" gradientTransform="matrix(0.093759,0,0,0.093759,0,20.158173)">
<stop offset="0" style="stop-color:rgb(74.117649%,74.117649%,74.117649%);stop-opacity:1;"/>
<stop offset="1" style="stop-color:rgb(87.843138%,87.843138%,87.843138%);stop-opacity:1;"/>
</linearGradient>
</defs>
<g id="surface1">
<path style=" stroke:none;fill-rule:nonzero;fill:url(#linear0);" d="M 7.691406 42.050781 L 40.1875 42.050781 L 40.1875 44.035156 L 7.691406 44.035156 Z M 7.691406 42.050781 "/>
<path style=" stroke:none;fill-rule:nonzero;fill:url(#radial0);" d="M 40.1875 42.050781 L 44.15625 42.050781 L 44.15625 40.066406 L 40.1875 40.066406 Z M 40.1875 42.050781 "/>
<path style=" stroke:none;fill-rule:nonzero;fill:url(#radial1);" d="M 7.691406 42.050781 L 3.722656 42.050781 L 3.722656 44.035156 L 7.691406 44.035156 Z M 7.691406 42.050781 "/>
<path style=" stroke:none;fill-rule:nonzero;fill:url(#radial2);" d="M 7.691406 42.050781 L 3.722656 42.050781 L 3.722656 40.066406 L 7.691406 40.066406 Z M 7.691406 42.050781 "/>
<path style=" stroke:none;fill-rule:nonzero;fill:url(#radial3);" d="M 40.1875 42.050781 L 44.15625 42.050781 L 44.15625 44.035156 L 40.1875 44.035156 Z M 40.1875 42.050781 "/>
<path style=" stroke:none;fill-rule:nonzero;fill:url(#linear1);" d="M 5.457031 4.34375 L 42.171875 4.34375 C 42.992188 4.34375 43.660156 5.011719 43.660156 5.832031 L 43.660156 40.5625 C 43.660156 41.382812 42.992188 42.050781 42.171875 42.050781 L 5.457031 42.050781 C 4.636719 42.050781 3.96875 41.382812 3.96875 40.5625 L 3.96875 5.832031 C 3.96875 5.011719 4.636719 4.34375 5.457031 4.34375 Z M 5.457031 4.34375 "/>
<path style=" stroke:none;fill-rule:nonzero;fill:rgb(0%,0%,0%);fill-opacity:0.235294;" d="M 3.96875 40.191406 L 3.96875 40.5625 C 3.96875 41.386719 4.632812 42.050781 5.457031 42.050781 L 42.171875 42.050781 C 42.996094 42.050781 43.660156 41.386719 43.660156 40.5625 L 43.660156 40.191406 C 43.660156 41.015625 42.996094 41.679688 42.171875 41.679688 L 5.457031 41.679688 C 4.632812 41.679688 3.96875 41.015625 3.96875 40.191406 Z M 3.96875 40.191406 "/>
<path style=" stroke:none;fill-rule:nonzero;fill:rgb(0%,0%,0%);fill-opacity:0.196078;" d="M 3.96875 36.097656 L 43.660156 36.097656 L 43.660156 36.34375 L 3.96875 36.34375 Z M 3.96875 36.097656 "/>
<path style=" stroke:none;fill-rule:nonzero;fill:rgb(90.196079%,90.196079%,90.196079%);fill-opacity:0.588235;" d="M 3.96875 36.34375 L 43.660156 36.34375 L 43.660156 36.59375 L 3.96875 36.59375 Z M 3.96875 36.34375 "/>
<path style=" stroke:none;fill-rule:nonzero;fill:rgb(12.941177%,12.941177%,12.941177%);fill-opacity:0.992157;" d="M 3.96875 36.222656 L 43.660156 36.222656 L 43.660156 36.46875 L 3.96875 36.46875 Z M 3.96875 36.222656 "/>
<path style=" stroke:none;fill-rule:nonzero;fill:rgb(90.196079%,90.196079%,90.196079%);fill-opacity:0.588235;" d="M 5.953125 4.34375 C 4.855469 4.34375 3.96875 5.230469 3.96875 6.328125 L 3.96875 6.578125 C 3.96875 5.476562 4.855469 4.59375 5.953125 4.59375 L 41.675781 4.59375 C 42.773438 4.59375 43.660156 5.476562 43.660156 6.578125 L 43.660156 6.328125 C 43.660156 5.230469 42.773438 4.34375 41.675781 4.34375 Z M 5.953125 4.34375 "/>
<path style=" stroke:none;fill-rule:nonzero;fill:url(#linear2);" d="M 5.457031 4.34375 C 4.632812 4.34375 3.96875 5.007812 3.96875 5.832031 L 3.96875 9.800781 C 3.96875 9.976562 4 10.144531 4.054688 10.296875 L 17.859375 10.296875 C 18.410156 10.296875 18.851562 10.742188 18.851562 11.289062 L 18.851562 23.199219 L 15.875 23.199219 C 14.992188 23.199219 14.550781 24.265625 15.175781 24.890625 L 23.113281 32.828125 C 23.5 33.214844 24.128906 33.214844 24.515625 32.828125 L 32.453125 24.890625 C 33.078125 24.265625 32.636719 23.199219 31.753906 23.199219 L 28.777344 23.199219 L 28.777344 11.289062 C 28.777344 10.742188 29.21875 10.296875 29.769531 10.296875 L 43.574219 10.296875 C 43.628906 10.144531 43.660156 9.976562 43.660156 9.800781 L 43.660156 5.832031 C 43.660156 5.007812 42.996094 4.34375 42.171875 4.34375 Z M 5.457031 4.34375 "/>
<path style=" stroke:none;fill-rule:nonzero;fill:rgb(100%,100%,100%);fill-opacity:0.392157;" d="M 5.457031 4.34375 C 4.632812 4.34375 3.96875 5.007812 3.96875 5.832031 L 3.96875 6.328125 C 3.96875 5.503906 4.632812 4.839844 5.457031 4.839844 L 42.171875 4.839844 C 42.996094 4.839844 43.660156 5.503906 43.660156 6.328125 L 43.660156 5.832031 C 43.660156 5.007812 42.996094 4.34375 42.171875 4.34375 Z M 15.875 23.199219 C 15.183594 23.199219 14.761719 23.859375 14.914062 24.445312 C 15.019531 24.035156 15.378906 23.695312 15.875 23.695312 L 18.851562 23.695312 L 18.851562 23.199219 Z M 28.777344 23.199219 L 28.777344 23.695312 L 31.753906 23.695312 C 32.25 23.695312 32.609375 24.035156 32.714844 24.445312 C 32.867188 23.859375 32.445312 23.199219 31.753906 23.199219 Z M 28.777344 23.199219 "/>
<path style=" stroke:none;fill-rule:nonzero;fill:rgb(12.941177%,12.941177%,12.941177%);fill-opacity:1;" d="M 5.457031 4.203125 C 4.558594 4.203125 3.828125 4.933594 3.828125 5.832031 L 3.828125 40.5625 C 3.828125 41.460938 4.558594 42.191406 5.457031 42.191406 L 42.171875 42.191406 C 43.070312 42.191406 43.800781 41.460938 43.800781 40.5625 L 43.800781 5.832031 C 43.800781 4.933594 43.070312 4.203125 42.171875 4.203125 Z M 5.457031 4.484375 L 42.171875 4.484375 C 42.921875 4.484375 43.519531 5.082031 43.519531 5.832031 L 43.519531 40.5625 C 43.519531 41.3125 42.921875 41.910156 42.171875 41.910156 L 5.457031 41.910156 C 4.707031 41.910156 4.109375 41.3125 4.109375 40.5625 L 4.109375 5.832031 C 4.109375 5.082031 4.707031 4.484375 5.457031 4.484375 Z M 5.457031 4.484375 "/>
<path style=" stroke:none;fill-rule:nonzero;fill:rgb(0%,0%,0%);fill-opacity:0.235294;" d="M 3.96875 9.304688 L 3.96875 9.800781 C 3.96875 9.976562 4 10.144531 4.054688 10.296875 L 17.859375 10.296875 C 18.410156 10.296875 18.851562 10.742188 18.851562 11.289062 L 18.851562 10.792969 C 18.851562 10.242188 18.410156 9.800781 17.859375 9.800781 L 4.054688 9.800781 C 4 9.644531 3.96875 9.480469 3.96875 9.304688 Z M 43.660156 9.304688 C 43.660156 9.480469 43.628906 9.644531 43.574219 9.800781 L 29.769531 9.800781 C 29.21875 9.800781 28.777344 10.242188 28.777344 10.792969 L 28.777344 11.289062 C 28.777344 10.742188 29.21875 10.296875 29.769531 10.296875 L 43.574219 10.296875 C 43.628906 10.144531 43.660156 9.976562 43.660156 9.800781 Z M 14.914062 23.945312 C 14.832031 24.261719 14.902344 24.617188 15.175781 24.890625 L 23.113281 32.828125 C 23.5 33.214844 24.128906 33.214844 24.515625 32.828125 L 32.453125 24.890625 C 32.726562 24.617188 32.796875 24.261719 32.714844 23.945312 C 32.671875 24.105469 32.585938 24.261719 32.453125 24.394531 L 24.515625 32.332031 C 24.128906 32.71875 23.5 32.71875 23.113281 32.332031 L 15.175781 24.394531 C 15.042969 24.261719 14.957031 24.105469 14.914062 23.945312 Z M 14.914062 23.945312 "/>
<path style=" stroke:none;fill-rule:nonzero;fill:rgb(12.941177%,12.941177%,12.941177%);fill-opacity:1;" d="M 5.457031 4.203125 C 4.558594 4.203125 3.828125 4.933594 3.828125 5.832031 L 3.828125 9.800781 C 3.828125 9.992188 3.859375 10.175781 3.921875 10.34375 L 3.953125 10.4375 L 17.859375 10.4375 C 18.335938 10.4375 18.710938 10.816406 18.710938 11.289062 L 18.710938 23.058594 L 15.875 23.058594 C 15.378906 23.058594 14.992188 23.363281 14.832031 23.757812 C 14.667969 24.148438 14.722656 24.636719 15.074219 24.992188 L 23.015625 32.929688 C 23.457031 33.371094 24.175781 33.371094 24.617188 32.929688 L 32.554688 24.992188 C 32.90625 24.636719 32.960938 24.148438 32.800781 23.757812 C 32.636719 23.363281 32.25 23.058594 31.753906 23.058594 L 28.917969 23.058594 L 28.917969 11.289062 C 28.917969 10.816406 29.292969 10.4375 29.769531 10.4375 L 43.675781 10.4375 L 43.707031 10.34375 C 43.769531 10.175781 43.800781 9.992188 43.800781 9.800781 L 43.800781 5.832031 C 43.800781 4.933594 43.070312 4.203125 42.171875 4.203125 Z M 5.457031 4.484375 L 42.171875 4.484375 C 42.921875 4.484375 43.519531 5.082031 43.519531 5.832031 L 43.519531 9.800781 C 43.519531 9.925781 43.5 10.042969 43.46875 10.15625 L 29.769531 10.15625 C 29.144531 10.15625 28.636719 10.664062 28.636719 11.289062 L 28.636719 23.339844 L 31.753906 23.339844 C 32.136719 23.339844 32.414062 23.566406 32.539062 23.863281 C 32.664062 24.160156 32.625 24.519531 32.355469 24.792969 L 24.417969 32.730469 C 24.082031 33.0625 23.546875 33.0625 23.214844 32.730469 L 15.273438 24.792969 C 15.003906 24.519531 14.96875 24.160156 15.089844 23.863281 C 15.214844 23.566406 15.492188 23.339844 15.875 23.339844 L 18.992188 23.339844 L 18.992188 11.289062 C 18.992188 10.664062 18.484375 10.15625 17.859375 10.15625 L 4.160156 10.15625 C 4.128906 10.042969 4.109375 9.925781 4.109375 9.800781 L 4.109375 5.832031 C 4.109375 5.082031 4.707031 4.484375 5.457031 4.484375 Z M 5.457031 4.484375 "/>
</g>
</svg>
